X: 09089
T: PEGGY'S REEL
C: Bob McQuillen 23 Oct 92
B: Bob's Note Book 9 #89
R: reel
Z: 2018 John Chambers <jc:trillian.mit.edu>
M: C
L: 1/8
K: G
DE \
| G2BG DGBd | e2dB d2de | gbag egdB | GBAG E2DE |
| G2BG DGBd | e2dB dega | bgag egdB | AGAB G2 :|
|: Bd \
| gbag edga | bgag e2ge | dBde gedB | GBAG E2DE |
| GBGD EGDE | GBdg egde | g2bg dgeg | dBAB G2 :|
%%begintext align
%% So there I was, down in Harlow's Deli this
%% morning, drinking my coffe, and where do you think Peggy McCauley was?
%% She was supposed to be there, too! But no, there she was, way out in
%% Seattle, dancing up a storm and drinking Starbuck's Coffee (hey, that
%% ain't bad!), and we all miss you Peggy. Nelson Town Hall dances
%% haven't been the same since you left!
%%endtext

%%sep 1 1 500

%%sep 1 1 500

